svg/fluentui-system-icons/ic_fluent_code_py_16_regular.svg

<svg width="16" height="16" viewBox="0 0 16 16" fill="none" xmlns="http://www.w3.org/2000/svg">
<path d="M5.75 3.9995H3.5C3.36739 3.9995 3.24022 4.05218 3.14645 4.14595C3.05269 4.23972 3 4.3669 3 4.4995V11.4995C3 11.6321 3.05269 11.7593 3.14645 11.8531C3.24022 11.9468 3.36739 11.9995 3.5 11.9995C3.63261 11.9995 3.75978 11.9468 3.85355 11.8531C3.94731 11.7593 4 11.6321 4 11.4995V8.4995H5.75C6.34657 8.49897 6.91857 8.26175 7.34041 7.83991C7.76225 7.41807 7.99947 6.84608 8 6.2495C7.99947 5.65293 7.76225 5.08094 7.34041 4.6591C6.91857 4.23726 6.34657 4.00003 5.75 3.9995V3.9995ZM5.75 7.4995H4V4.9995H5.75C6.08136 5.00003 6.39899 5.1319 6.6333 5.36621C6.86761 5.60051 6.99947 5.91815 7 6.2495C6.99947 6.58086 6.86761 6.8985 6.6333 7.1328C6.39899 7.36711 6.08136 7.49898 5.75 7.4995V7.4995ZM14.407 4.7905L12 8.1595V11.4995C12 11.6321 11.9473 11.7593 11.8535 11.8531C11.7598 11.9468 11.6326 11.9995 11.5 11.9995C11.3674 11.9995 11.2402 11.9468 11.1465 11.8531C11.0527 11.7593 11 11.6321 11 11.4995V8.1595L8.593 4.7905C8.55443 4.73701 8.52683 4.67641 8.51178 4.61219C8.49673 4.54798 8.49453 4.48143 8.50531 4.41636C8.51609 4.3513 8.53964 4.28901 8.5746 4.23308C8.60956 4.17716 8.65524 4.1287 8.709 4.0905C8.7625 4.05194 8.8231 4.02433 8.88731 4.00928C8.95153 3.99424 9.01808 3.99204 9.08315 4.00282C9.14821 4.0136 9.21049 4.03715 9.26642 4.07211C9.32234 4.10706 9.3708 4.15274 9.409 4.2065L11.5 7.1395L13.593 4.2085C13.6312 4.15474 13.6797 4.10906 13.7356 4.07411C13.7915 4.03915 13.8538 4.0156 13.9189 4.00482C13.9839 3.99404 14.0505 3.99624 14.1147 4.01128C14.1789 4.02633 14.2395 4.05394 14.293 4.0925C14.3463 4.13084 14.3916 4.17931 14.4262 4.23514C14.4608 4.29097 14.484 4.35307 14.4946 4.41789C14.5052 4.48271 14.5029 4.54898 14.4879 4.61291C14.4728 4.67685 14.4454 4.73719 14.407 4.7905V4.7905Z" fill="#212121"/>
</svg>

<svg xmlns="http://www.w3.org/2000/svg" width="16" height="16"><path d="M5.75 4H3.5a.5.5 0 0 0-.5.5v7a.5.5 0 0 0 1 0v-3h1.75A2.252 2.252 0 0 0 8 6.25 2.252 2.252 0 0 0 5.75 4Zm0 3.5H4V5h1.75A1.252 1.252 0 0 1 7 6.25 1.252 1.252 0 0 1 5.75 7.5Zm8.657-2.71L12 8.16v3.34a.5.5 0 0 1-1 0V8.16L8.593 4.79a.5.5 0 0 1 .294-.78.5.5 0 0 1 .522.197L11.5 7.14l2.093-2.931a.5.5 0 1 1 .814.582Z"/></svg>
